svg/l/LC.svg

<svg width="32" height="24" fill="none" xmlns="http://www.w3.org/2000/svg">
  <mask id="a" maskUnits="userSpaceOnUse" x="0" y="0" width="32" height="24">
    <path fill="#fff" d="M0 0h32v24H0z"/>
  </mask>
  <g mask="url(#a)" fill-rule="evenodd" clip-rule="evenodd">
    <path d="M0 0h32v24H0V0z" fill="#7CCFF5"/>
    <path d="M16 4l8 16H8l8-16z" fill="#F7FCFF"/>
    <path d="M16 8l7 12H9l7-12z" fill="#272727"/>
    <path d="M16 14l8 6H8l8-6z" fill="#FECA00"/>
  </g>
</svg>

<svg width="32" height="24" viewBox="0 0 32 24" fill="none" xmlns="http://www.w3.org/2000/svg">
<mask id="mask0" mask-type="alpha" maskUnits="userSpaceOnUse" x="0" y="0" width="32" height="24">
<rect width="32" height="24" fill="white"/>
</mask>
<g mask="url(#mask0)">
<path fill-rule="evenodd" clip-rule="evenodd" d="M0 0H32V24H0V0Z" fill="#7CCFF5"/>
<path fill-rule="evenodd" clip-rule="evenodd" d="M16 4L24 20H8L16 4Z" fill="#F7FCFF"/>
<path fill-rule="evenodd" clip-rule="evenodd" d="M16 8L23 20H9L16 8Z" fill="#272727"/>
<path fill-rule="evenodd" clip-rule="evenodd" d="M16 14L24 20H8L16 14Z" fill="#FECA00"/>
</g>
</svg>
